packages/kaspersky-hexa-ui-icons/src/iconsSVGs/16/Flush.svg

<svg width="16" height="16" viewBox="0 0 16 16" fill="none" xmlns="http://www.w3.org/2000/svg">
<path fill-rule="evenodd" clip-rule="evenodd" d="M12.1025 0.942627C11.5226 0.942627 11.0525 1.41273 11.0525 1.99263V3.79263C11.0525 4.37253 11.5226 4.84263 12.1025 4.84263H13.9025C14.4824 4.84263 14.9525 4.37252 14.9525 3.79263V1.99263C14.9525 1.41273 14.4824 0.942627 13.9025 0.942627H12.1025ZM12.3525 3.54263V2.24263H13.6525V3.54263H12.3525Z" fill="black"/>
<path d="M5.96135 1.14033C5.70751 1.39417 5.70751 1.80573 5.96135 2.05957L7.73668 3.8349H6.14704C3.46028 3.8349 1.28223 6.01295 1.28223 8.69971C1.28223 11.3865 3.46028 13.5645 6.14703 13.5645H8.62995C8.98893 13.5645 9.27995 13.2735 9.27995 12.9145C9.27995 12.5555 8.98893 12.2645 8.62995 12.2645H6.14703C4.17825 12.2645 2.58223 10.6685 2.58223 8.69971C2.58223 6.73092 4.17825 5.1349 6.14704 5.1349H7.7367L5.96135 6.91026C5.70751 7.1641 5.70751 7.57566 5.96135 7.8295C6.21519 8.08334 6.62674 8.08334 6.88059 7.8295L9.76555 4.94453C10.0194 4.69069 10.0194 4.27914 9.76555 4.0253L6.88059 1.14033C6.62674 0.886491 6.21519 0.886491 5.96135 1.14033Z" fill="black"/>
<path fill-rule="evenodd" clip-rule="evenodd" d="M11.0525 7.10225C11.0525 6.52235 11.5226 6.05225 12.1025 6.05225H13.9025C14.4824 6.05225 14.9525 6.52235 14.9525 7.10225V8.90225C14.9525 9.48214 14.4824 9.95225 13.9025 9.95225H12.1025C11.5226 9.95225 11.0525 9.48215 11.0525 8.90225V7.10225ZM12.3525 7.35225V8.65225H13.6525V7.35225H12.3525Z" fill="black"/>
<path fill-rule="evenodd" clip-rule="evenodd" d="M12.1025 11.1573C11.5226 11.1573 11.0525 11.6274 11.0525 12.2073V14.0073C11.0525 14.5872 11.5226 15.0573 12.1025 15.0573H13.9025C14.4824 15.0573 14.9525 14.5872 14.9525 14.0073V12.2073C14.9525 11.6274 14.4824 11.1573 13.9025 11.1573H12.1025ZM12.3525 13.7573V12.4573H13.6525V13.7573H12.3525Z" fill="black"/>
</svg>

<svg xmlns="http://www.w3.org/2000/svg" width="16" height="16" fill="none" viewBox="0 0 16 16"><path fill="#000" fill-rule="evenodd" d="M12.1025.9426c-.5799 0-1.05.4701-1.05 1.05v1.8c0 .58.4701 1.05 1.05 1.05h1.8c.5799 0 1.05-.47 1.05-1.05v-1.8c0-.5799-.4701-1.05-1.05-1.05zm-6.1411.1977a.65.65 0 0 0 0 .9193l1.7753 1.7753H6.147c-2.6868 0-4.8649 2.178-4.8649 4.8648s2.178 4.8648 4.8648 4.8648H8.63a.65.65 0 1 0 0-1.3H6.147c-1.9687 0-3.5648-1.596-3.5648-3.5648S4.1782 5.135 6.1471 5.135h1.5896L5.9614 6.9103a.65.65 0 0 0 .9192.9192l2.885-2.885a.65.65 0 0 0 0-.9192l-2.885-2.885a.65.65 0 0 0-.9192 0m6.3911 2.4023v-1.3h1.3v1.3zm-1.3 3.5596c0-.5798.4701-1.05 1.05-1.05h1.8c.5799 0 1.05.4702 1.05 1.05v1.8c0 .58-.4701 1.05-1.05 1.05h-1.8c-.5799 0-1.05-.47-1.05-1.05zm1.3.25v1.3h1.3v-1.3zm-.25 3.8051c-.5799 0-1.05.4701-1.05 1.05v1.8c0 .5799.4701 1.05 1.05 1.05h1.8c.5799 0 1.05-.4701 1.05-1.05v-1.8c0-.5799-.4701-1.05-1.05-1.05zm.25 2.6v-1.3h1.3v1.3z"/></svg>
